src/assets/images/sponsors/5xruby.svg

<svg fill="none" height="240" viewBox="0 0 300 240" width="300" xmlns="http://www.w3.org/2000/svg" xmlns:xlink="http://www.w3.org/1999/xlink"><linearGradient id="a" gradientUnits="userSpaceOnUse" x1="39.7732" x2="63.7598" y1="110.547" y2="134.631"><stop offset="0" stop-color="#e7332e"/><stop offset="1" stop-color="#ed7c6f"/></linearGradient><linearGradient id="b" gradientUnits="userSpaceOnUse" x1="45.7031" x2="45.7031" y1="116.807" y2="100.068"><stop offset="0" stop-color="#f19d96"/><stop offset="1" stop-color="#eb7063"/></linearGradient><linearGradient id="c" gradientUnits="userSpaceOnUse" x1="70.6158" x2="70.6158" y1="116.208" y2="101.665"><stop offset="0" stop-color="#f6c0bd"/><stop offset="1" stop-color="#ef918b"/></linearGradient><linearGradient id="d" gradientUnits="userSpaceOnUse" x1="58.4281" x2="71.3104" y1="116.743" y2="129.687"><stop offset="0" stop-color="#e95750"/><stop offset="1" stop-color="#f09580"/></linearGradient><clipPath id="e"><path d="m12 98h276v44h-276z"/></clipPath><path d="m0 0h300v240h-300z" fill="#fff"/><g clip-path="url(#e)"><path d="m99.4455 113.604v-5.352c.0911-1.996-.6377-3.901-2.0951-5.262s-3.3703-2.087-5.3742-1.996h-4.8278v5.625h4.1901c1.2753-.091 2.2773.907 2.3684 2.086v6.169c-.0911 1.633.5465 3.176 1.6396 4.264 1.1841 1.089 2.7326 1.724 4.2811 1.996-1.5485.182-3.097.907-4.2811 1.905-1.0931 1.18-1.7307 2.722-1.6396 4.264v5.897c.091 1.27-.9109 2.268-2.0951 2.359h-4.4634v5.625h4.8278c2.0039.09 3.9168-.635 5.3742-1.996 1.3664-1.361 2.1862-3.357 2.0951-5.262v-5.262c0-2.903 1.5485-4.627 4.9185-4.627v-5.806c-3.37 0-4.9185-1.724-4.9185-4.627z" fill="#000"/><path d="m22.5663 114.874v-5.897c-.0911-1.27.9109-2.268 2.0951-2.358h4.4634v-5.625h-4.8278c-2.0039-.091-3.9168.635-5.3742 1.996-1.3664 1.361-2.0951 3.266-2.004 5.262v5.352c0 2.903-1.5485 4.627-4.9188 4.627v5.806c3.2792 0 4.9188 1.724 4.9188 4.627v5.262c-.0911 1.996.6376 3.901 2.004 5.262 1.4574 1.361 3.4614 2.086 5.4653 1.996h4.8277v-5.625h-4.2811c-1.2753.091-2.2773-.907-2.3684-2.087v-6.078c.0911-1.633-.4554-3.175-1.6396-4.355-1.1841-1.088-2.7326-1.723-4.2812-1.996 1.6396-.181 3.0971-.907 4.2812-1.905 1.1842-1.179 1.7307-2.721 1.6396-4.264z" fill="#000"/><path d="m33.2239 115.782 24.9584 26.218v-26.218z" fill="url(#a)"/><path d="m58.1823 101.538h-17.8535l-7.1049 14.243h24.9584z" fill="url(#b)"/><path d="m83.0495 115.781-7.105-14.243h-17.7624v14.243z" fill="url(#c)"/><path d="m58.1821 115.782v26.218l24.8674-26.218z" fill="url(#d)"/><g fill="#000"><path d="m114.293 132.928h8.198l2.004-10.251h-7.743v-6.623h8.836l1.366-7.258h-11.113v-6.441h37.62v6.441h-19.128l-1.276 7.258h16.214v16.874h5.557v6.26h-40.444v-6.26zm27.782-10.342h-10.293l-1.822 10.251h12.206z"/><path d="m168.582 140.911h-6.194v-17.418c-.273.453-.729 1.088-1.366 1.996-.638.907-1.276 1.542-1.549 1.996-.182-1.089-.273-2.45-.455-4.174-.182-2.177-.456-3.81-.638-5.08 2.915-5.716 4.919-11.522 6.285-17.963l6.741 1.724c-.729 3.084-1.822 6.169-2.915 9.072zm29.149-30.573h-6.741l4.281 1.361c-.182.454-.637 1.089-1.275 1.996-.638 1.089-.911 1.724-1.366 2.177h6.285v5.353h-28.875v-5.353h6.194l-2.46-3.719 3.826-1.815h-6.012v-5.443h9.838v-4.445h6.467v4.445h9.838zm-19.038 30.392h-6.467v-16.874h24.958v16.874h-6.467v-1.815h-12.024zm0-11.34v4.445h12.024v-4.445zm4.463-15.06-2.914 1.542h5.738c1.275-1.996 2.186-3.81 2.733-5.534h-8.654c1.093 1.361 2.095 2.722 3.097 3.992z"/><path d="m203.196 128.755h19.129l2.459-1.815h-13.117v-4.626h23.41v3.991l-3.826 2.268h12.206v5.081h-14.938v1.724c0 3.266-1.731 4.899-5.101 5.08h-4.19c-2.186.181-3.735.181-4.646.181-.637-2.721-.911-4.445-1.275-4.899.638.182 2.642.182 6.194.182 1.549 0 2.277-.635 2.186-1.724v-.453h-18.491zm23.228-28.7589 2.732 2.4499c-.91.635-1.821 1.36-2.641 1.995.729.454 1.731 1.089 2.641 1.724l-1.73 1.996 1.73 1.542c-.182.182-.637.635-1.366 1.089-.638.635-.911.907-1.366 1.27.728.635 1.73 1.27 2.915 1.815l-2.187 2.721h7.288v-1.724h-4.737v-3.266h4.919v-1.542h-4.919v-3.175h5.101v-1.633h-5.83v-3.992h12.206l-.729 15.332h2.187v8.8h-6.012v-4.627h-26.963v4.627h-6.012v-8.8h1.822l-.637-14.787c4.645-.636 8.198-1.271 10.657-1.8149l1.549 4.7179c-1.549.272-3.553.635-5.83 1.088v1.27h5.101v3.085h-4.646v1.542h4.919v3.175h-4.736v1.724h6.922c-.182-.181-.273-.635-.637-1.089-.638-1.088-.911-1.723-1.367-1.995 1.276-.635 2.186-1.089 2.915-1.543-.273-.181-.729-.635-1.548-1.088-.456-.272-.729-.635-1.276-.726l1.549-1.542c-.638-.635-1.275-1.543-1.822-2.268.273-.182.911-.454 1.731-.726.637-.454 1.275-.726 1.548-.726-.273-.181-.728-.635-1.366-1.089-.638-.272-1.275-.635-1.548-.725l2.186-2.45c.728.272 1.821.907 3.279 1.815.273.181.637.453.729.453.273-.272.91-.726 1.73-1.361.82-.907 1.276-1.36 1.549-1.5419zm-3.006 14.3339c-1.093.726-2.277 1.542-3.553 2.177h6.286c-.274-.272-.911-.725-1.731-1.36-.456-.273-.911-.545-1.002-.817zm0-7.439c-.638.272-1.367.726-2.46 1.361.456.181.911.635 1.731 1.088.273.182.638.454.729.454.273-.181.729-.454 1.366-1.089.273-.181.638-.453.638-.453-.182-.182-.638-.454-.911-.635-.638-.363-1.002-.545-1.093-.726z"/><path d="m259.762 118.413c1.822 2.903 2.733 5.987 2.733 9.253.182 4.899-1.366 7.53-4.646 7.984-.121 0-.212.06-.273.181-.638.182-1.275.182-1.822.182l-1.548-4.446v9.254h-5.374v-39.01h13.299v6.169zm-5.556-10.433v21.41h1.275c1.093.182 1.731-.907 1.731-3.266 0-1.814-.729-4.264-2.46-7.258l2.278-10.705zm28.875 20.594c1.731.635 3.37 1.27 4.919 1.814 0 .181 0 .454-.182.726-.183 2.449-.456 4.173-.729 5.08-.182 2.631-2.004 3.811-5.374 3.811h-1.367c-3.734.181-5.556-1.543-5.556-4.718v-8.8h-2.186c.182 6.441-2.733 11.249-8.836 14.606-.273-.453-1.093-1.27-2.186-2.268-.911-1.27-1.731-2.177-2.186-2.449 5.101-1.996 7.56-5.262 7.105-9.708h-4.008v-5.806h24.867v5.716h-6.649v7.257c0 .636.182 1.089.455 1.089h.273c.638 0 .729-.453.729-1.27.729-1.27.911-2.903.911-5.08zm-5.374-28.396v4.173h9.564v9.254h-2.186v4.899h-20.04v-4.899h-2.277v-9.254h8.471v-4.173zm-9.109 9.979v2.903h12.843v-2.903z"/></g></g></svg>

<svg width="300" height="240" viewBox="0 0 300 240" fill="none" xmlns="http://www.w3.org/2000/svg">
<rect width="300" height="240" fill="white"/>
<g clip-path="url(#clip0_1968_45374)">
<path d="M99.4455 113.604V108.252C99.5366 106.256 98.8078 104.351 97.3504 102.99C95.893 101.629 93.9801 100.903 91.9762 100.994H87.1484V106.619H91.3385C92.6138 106.528 93.6158 107.526 93.7069 108.705V114.874C93.6158 116.507 94.2534 118.05 95.3465 119.138C96.5306 120.227 98.0791 120.862 99.6276 121.134C98.0791 121.316 96.5306 122.041 95.3465 123.039C94.2534 124.219 93.6158 125.761 93.7069 127.303V133.2C93.7979 134.47 92.796 135.468 91.6118 135.559H87.1484V141.184H91.9762C93.9801 141.274 95.893 140.549 97.3504 139.188C98.7168 137.827 99.5366 135.831 99.4455 133.926V128.664C99.4455 125.761 100.994 124.037 104.364 124.037V118.231C100.994 118.231 99.4455 116.507 99.4455 113.604Z" fill="black"/>
<path d="M22.5663 114.874V108.977C22.4752 107.707 23.4772 106.709 24.6614 106.619H29.1248V100.994H24.297C22.2931 100.903 20.3802 101.629 18.9228 102.99C17.5564 104.351 16.8277 106.256 16.9188 108.252V113.604C16.9188 116.507 15.3703 118.231 12 118.231V124.037C15.2792 124.037 16.9188 125.761 16.9188 128.664V133.926C16.8277 135.922 17.5564 137.827 18.9228 139.188C20.3802 140.549 22.3842 141.274 24.3881 141.184H29.2158V135.559H24.9347C23.6594 135.65 22.6574 134.652 22.5663 133.472V127.394C22.6574 125.761 22.1109 124.219 20.9267 123.039C19.7426 121.951 18.1941 121.316 16.6455 121.043C18.2851 120.862 19.7426 120.136 20.9267 119.138C22.1109 117.959 22.6574 116.417 22.5663 114.874Z" fill="black"/>
<path d="M33.2239 115.782L58.1823 142V115.782H33.2239Z" fill="url(#paint0_linear_1968_45374)"/>
<path d="M58.1823 101.538H40.3288L33.2239 115.781H58.1823V101.538Z" fill="url(#paint1_linear_1968_45374)"/>
<path d="M83.0495 115.781L75.9445 101.538H58.1821V115.781H83.0495Z" fill="url(#paint2_linear_1968_45374)"/>
<path d="M58.1821 115.782V142L83.0495 115.782H58.1821Z" fill="url(#paint3_linear_1968_45374)"/>
<path d="M114.293 132.928H122.491L124.495 122.677H116.752V116.054H125.588L126.954 108.796H115.841V102.355H153.461V108.796H134.333L133.057 116.054H149.271V132.928H154.828V139.188H114.384V132.928H114.293ZM142.075 122.586H131.782L129.96 132.837H142.166L142.075 122.586Z" fill="black"/>
<path d="M168.582 140.911H162.388V123.493C162.115 123.946 161.659 124.581 161.022 125.489C160.384 126.396 159.746 127.031 159.473 127.485C159.291 126.396 159.2 125.035 159.018 123.311C158.836 121.134 158.562 119.501 158.38 118.231C161.295 112.515 163.299 106.709 164.665 100.268L171.406 101.992C170.677 105.076 169.584 108.161 168.491 111.064L168.582 140.911ZM197.731 110.338H190.99L195.271 111.699C195.089 112.153 194.634 112.788 193.996 113.695C193.358 114.784 193.085 115.419 192.63 115.872H198.915V121.225H170.04V115.872H176.234L173.774 112.153L177.6 110.338H171.588V104.895H181.426V100.45H187.893V104.895H197.731V110.338ZM178.693 140.73H172.226V123.856H197.184V140.73H190.717V138.915H178.693V140.73ZM178.693 129.39V133.835H190.717V129.39H178.693ZM183.156 114.33L180.242 115.872H185.98C187.255 113.876 188.166 112.062 188.713 110.338H180.059C181.152 111.699 182.154 113.06 183.156 114.33Z" fill="black"/>
<path d="M203.196 128.755H222.325L224.784 126.94H211.667V122.314H235.077V126.305L231.251 128.573H243.457V133.654H228.519V135.378C228.519 138.644 226.788 140.277 223.418 140.458H219.228C217.042 140.639 215.493 140.639 214.582 140.639C213.945 137.918 213.671 136.194 213.307 135.74C213.945 135.922 215.949 135.922 219.501 135.922C221.05 135.922 221.778 135.287 221.687 134.198V133.745H203.196V128.755ZM226.424 99.9961L229.156 102.446C228.246 103.081 227.335 103.806 226.515 104.441C227.244 104.895 228.246 105.53 229.156 106.165L227.426 108.161L229.156 109.703C228.974 109.885 228.519 110.338 227.79 110.792C227.152 111.427 226.879 111.699 226.424 112.062C227.152 112.697 228.154 113.332 229.339 113.877L227.152 116.598H234.44V114.874H229.703V111.608H234.622V110.066H229.703V106.891H234.804V105.258H228.974V101.266H241.18L240.451 116.598H242.638V125.398H236.626V120.771H209.663V125.398H203.651V116.598H205.473L204.836 101.811C209.481 101.175 213.034 100.54 215.493 99.9961L217.042 104.714C215.493 104.986 213.489 105.349 211.212 105.802V107.072H216.313V110.157H211.667V111.699H216.586V114.874H211.85V116.598H218.772C218.59 116.417 218.499 115.963 218.135 115.509C217.497 114.421 217.224 113.786 216.768 113.514C218.044 112.879 218.954 112.425 219.683 111.971C219.41 111.79 218.954 111.336 218.135 110.883C217.679 110.611 217.406 110.248 216.859 110.157L218.408 108.615C217.77 107.98 217.133 107.072 216.586 106.347C216.859 106.165 217.497 105.893 218.317 105.621C218.954 105.167 219.592 104.895 219.865 104.895C219.592 104.714 219.137 104.26 218.499 103.806C217.861 103.534 217.224 103.171 216.951 103.081L219.137 100.631C219.865 100.903 220.958 101.538 222.416 102.446C222.689 102.627 223.053 102.899 223.145 102.899C223.418 102.627 224.055 102.173 224.875 101.538C225.695 100.631 226.151 100.178 226.424 99.9961ZM223.418 114.33C222.325 115.056 221.141 115.872 219.865 116.507H226.151C225.877 116.235 225.24 115.782 224.42 115.147C223.964 114.874 223.509 114.602 223.418 114.33ZM223.418 106.891C222.78 107.163 222.051 107.617 220.958 108.252C221.414 108.433 221.869 108.887 222.689 109.34C222.962 109.522 223.327 109.794 223.418 109.794C223.691 109.613 224.147 109.34 224.784 108.705C225.057 108.524 225.422 108.252 225.422 108.252C225.24 108.07 224.784 107.798 224.511 107.617C223.873 107.254 223.509 107.072 223.418 106.891Z" fill="black"/>
<path d="M259.762 118.413C261.584 121.316 262.495 124.4 262.495 127.666C262.677 132.565 261.129 135.196 257.849 135.65C257.728 135.65 257.637 135.71 257.576 135.831C256.938 136.013 256.301 136.013 255.754 136.013L254.206 131.567V140.821H248.832V101.811H262.131V107.98L259.762 118.413ZM254.206 107.98V129.39H255.481C256.574 129.572 257.212 128.483 257.212 126.124C257.212 124.31 256.483 121.86 254.752 118.866L257.03 108.161L254.206 107.98ZM283.081 128.574C284.812 129.209 286.451 129.844 288 130.388C288 130.569 288 130.842 287.818 131.114C287.635 133.563 287.362 135.287 287.089 136.194C286.907 138.825 285.085 140.005 281.715 140.005H280.348C276.614 140.186 274.792 138.462 274.792 135.287V126.487H272.606C272.788 132.928 269.873 137.736 263.77 141.093C263.497 140.64 262.677 139.823 261.584 138.825C260.673 137.555 259.853 136.648 259.398 136.376C264.499 134.38 266.958 131.114 266.503 126.668H262.495V120.862H287.362V126.578H280.713V133.835C280.713 134.471 280.895 134.924 281.168 134.924H281.441C282.079 134.924 282.17 134.471 282.17 133.654C282.899 132.384 283.081 130.751 283.081 128.574ZM277.707 100.178V104.351H287.271V113.605H285.085V118.504H265.045V113.605H262.768V104.351H271.239V100.178H277.707ZM268.598 110.157V113.06H281.441V110.157H268.598Z" fill="black"/>
</g>
<defs>
<linearGradient id="paint0_linear_1968_45374" x1="39.7732" y1="110.547" x2="63.7598" y2="134.631" gradientUnits="userSpaceOnUse">
<stop stop-color="#E7332E"/>
<stop offset="1" stop-color="#ED7C6F"/>
</linearGradient>
<linearGradient id="paint1_linear_1968_45374" x1="45.7031" y1="116.807" x2="45.7031" y2="100.068" gradientUnits="userSpaceOnUse">
<stop stop-color="#F19D96"/>
<stop offset="1" stop-color="#EB7063"/>
</linearGradient>
<linearGradient id="paint2_linear_1968_45374" x1="70.6158" y1="116.208" x2="70.6158" y2="101.665" gradientUnits="userSpaceOnUse">
<stop stop-color="#F6C0BD"/>
<stop offset="1" stop-color="#EF918B"/>
</linearGradient>
<linearGradient id="paint3_linear_1968_45374" x1="58.4281" y1="116.743" x2="71.3104" y2="129.687" gradientUnits="userSpaceOnUse">
<stop stop-color="#E95750"/>
<stop offset="1" stop-color="#F09580"/>
</linearGradient>
<clipPath id="clip0_1968_45374">
<rect width="276" height="44" fill="white" transform="translate(12 98)"/>
</clipPath>
</defs>
</svg>
